src/images/icons/Vector youtube.svg

<svg xmlns="http://www.w3.org/2000/svg" width="20" height="16" fill="none"><path fill="#fff" d="M19.543 2.498C20 4.28 20 8 20 8s0 3.72-.457 5.502c-.254.985-.997 1.76-1.938 2.022C15.896 16 10 16 10 16s-5.893 0-7.605-.476c-.945-.266-1.687-1.04-1.938-2.022C0 11.72 0 8 0 8s0-3.72.457-5.502c.254-.985.997-1.76 1.938-2.022C4.107 0 10 0 10 0s5.896 0 7.605.476c.945.266 1.687 1.04 1.938 2.022M8 11.5 14 8 8 4.5z"/></svg>

<svg width="20" height="16" viewBox="0 0 20 16" fill="none" xmlns="http://www.w3.org/2000/svg">
<path d="M19.543 2.498C20 4.28 20 8 20 8C20 8 20 11.72 19.543 13.502C19.289 14.487 18.546 15.262 17.605 15.524C15.896 16 10 16 10 16C10 16 4.107 16 2.395 15.524C1.45 15.258 0.708 14.484 0.457 13.502C2.98023e-08 11.72 0 8 0 8C0 8 2.98023e-08 4.28 0.457 2.498C0.711 1.513 1.454 0.738 2.395 0.476C4.107 -1.78814e-07 10 0 10 0C10 0 15.896 -1.78814e-07 17.605 0.476C18.55 0.742 19.292 1.516 19.543 2.498ZM8 11.5L14 8L8 4.5V11.5Z" fill="white"/>
</svg>
